src/icons/svg/Thumbtack.svg

<svg width="24" height="24" viewBox="0 0 24 24" fill="none" xmlns="http://www.w3.org/2000/svg">
<path d="M7.94403 2.88001C7.94403 3.00001 7.84803 3.21601 7.80003 3.38401C7.65603 3.74401 7.48803 4.22401 7.48803 4.75201C7.48803 5.90401 8.88003 7.51201 10.08 8.66401C12.888 11.568 13.92 11.568 14.256 11.568C14.28 11.568 14.304 11.568 14.304 11.568C15.36 11.52 16.104 11.232 16.68 10.968C17.16 10.776 17.424 10.656 17.76 10.656C17.808 10.656 17.832 10.656 17.88 10.656C17.904 10.656 17.952 10.656 18 10.68L10.512 18.168C10.512 18.12 10.488 18.096 10.488 18.048C10.464 17.64 10.584 17.352 10.8 16.848C11.04 16.272 11.352 15.528 11.4 14.472C11.424 14.136 11.448 13.104 8.49603 10.224C7.34403 9.04801 5.73603 7.63201 4.58403 7.63201C4.05603 7.63201 3.60003 7.80001 3.21603 7.94401C3.04803 8.01601 2.83203 8.08801 2.71203 8.11201L7.94403 2.88001V2.88001ZM7.92003 1.65601C7.63203 1.65601 7.32003 1.77601 7.10403 1.99201L1.80003 7.29601C1.36803 7.72801 1.34403 8.42401 1.75203 8.90401C1.77603 8.92801 1.75203 8.92801 1.77603 8.95201C1.77603 8.95201 1.80003 8.95201 1.80003 8.97601C1.80003 8.97601 1.80003 8.97601 1.80003 9.00001C1.82403 9.02401 1.84803 9.02401 1.87203 9.04801C1.96803 9.14401 2.06403 9.19201 2.18403 9.24001C2.20803 9.24001 2.20803 9.24001 2.23203 9.26401C2.37603 9.31201 2.49603 9.33601 2.64003 9.33601C3.26403 9.33601 3.88803 8.85601 4.51203 8.85601C5.42403 8.85601 7.58403 11.088 7.58403 11.088C7.58403 11.088 10.152 13.584 10.128 14.424C10.056 16.128 9.14403 16.752 9.24003 18.144C9.31203 19.128 10.344 19.992 10.344 19.992L14.712 15.624L18.552 19.464L21.216 21.48L21.288 21.408L19.272 18.744L15.432 14.904L19.776 10.56C19.776 10.56 18.912 9.52801 17.928 9.45601C17.856 9.45601 17.784 9.45601 17.736 9.45601C16.488 9.45601 15.84 10.296 14.232 10.344C14.232 10.344 14.232 10.344 14.208 10.344C13.344 10.344 10.872 7.80001 10.872 7.80001C10.872 7.80001 8.64003 5.64001 8.64003 4.72801C8.64003 4.10401 9.09603 3.48001 9.12003 2.85601C9.12003 2.85601 9.12003 2.85601 9.12003 2.83201C9.12003 2.68801 9.09603 2.56801 9.04803 2.42401C9.04803 2.40001 9.04803 2.40001 9.02403 2.37601C8.97603 2.28001 8.90403 2.18401 8.83203 2.06401C8.80803 2.04001 8.80803 2.01601 8.78403 1.99201C8.78403 1.99201 8.78403 1.99201 8.76003 1.99201C8.76003 1.99201 8.76003 1.96801 8.73603 1.96801C8.71203 1.94401 8.71203 1.96801 8.68803 1.94401C8.49603 1.75201 8.20803 1.65601 7.92003 1.65601V1.65601Z" fill="#1C2125"/>
</svg>

<!-- Generated by IcoMoon.io -->
<svg version="1.1" xmlns="http://www.w3.org/2000/svg" width="24" height="24" viewBox="0 0 24 24">
<title>thumbtack</title>
<path fill="#444" d="M7.944 2.88c0 0 0 0 0 0 0 0.12-0.096 0.336-0.144 0.504-0.144 0.36-0.312 0.84-0.312 1.368 0 1.152 1.392 2.76 2.592 3.912 2.808 2.904 3.84 2.904 4.176 2.904 0.024 0 0.048 0 0.048 0 1.056-0.048 1.8-0.336 2.376-0.6 0.48-0.192 0.744-0.312 1.080-0.312 0.048 0 0.072 0 0.12 0 0.024 0 0.072 0 0.12 0.024l-7.488 7.488c0-0.048-0.024-0.072-0.024-0.12-0.024-0.408 0.096-0.696 0.312-1.2 0.24-0.576 0.552-1.32 0.6-2.376 0.024-0.336 0.048-1.368-2.904-4.248-1.152-1.176-2.76-2.592-3.912-2.592-0.528 0-0.984 0.168-1.368 0.312-0.168 0.072-0.384 0.144-0.504 0.168 0 0 0 0 0 0v0 0l5.232-5.232zM7.92 1.656c-0.288 0-0.6 0.12-0.816 0.336l-5.304 5.304c-0.432 0.432-0.456 1.128-0.048 1.608 0.024 0.024 0 0.024 0.024 0.048 0 0 0.024 0 0.024 0.024 0 0 0 0 0 0.024 0.024 0.024 0.048 0.024 0.072 0.048 0.096 0.096 0.192 0.144 0.312 0.192 0.024 0 0.024 0 0.048 0.024 0.144 0.048 0.264 0.072 0.408 0.072 0 0 0 0 0 0s0 0 0 0c0.624 0 1.248-0.48 1.872-0.48 0.912 0 3.072 2.232 3.072 2.232s2.568 2.496 2.544 3.336c-0.072 1.704-0.984 2.328-0.888 3.72 0.072 0.984 1.104 1.848 1.104 1.848l4.368-4.368 3.84 3.84 2.664 2.016 0.072-0.072-2.016-2.664-3.84-3.84 4.344-4.344c0 0-0.864-1.032-1.848-1.104-0.072 0-0.144 0-0.192 0-1.248 0-1.896 0.84-3.504 0.888 0 0 0 0-0.024 0-0.864 0-3.336-2.544-3.336-2.544s-2.232-2.16-2.232-3.072c0-0.624 0.456-1.248 0.48-1.872 0 0 0 0 0-0.024 0-0.144-0.024-0.264-0.072-0.408 0-0.024 0-0.024-0.024-0.048-0.048-0.096-0.12-0.192-0.192-0.312-0.024-0.024-0.024-0.048-0.048-0.072 0 0 0 0-0.024 0 0 0 0-0.024-0.024-0.024-0.024-0.024-0.024 0-0.048-0.024-0.192-0.192-0.48-0.288-0.768-0.288v0z"></path>
</svg>
